outputs/icons/communication/comms_chat_unread_round.svg

<svg xmlns="http://www.w3.org/2000/svg" width="1200" height="1200" fill="none"><path fill="#000" d="M657.985 150c29.13.001 57.67 2.444 85.45 6.925-16.825 22.63-30.19 47.719-39.375 74.607a450 450 0 0 0-46.075-2.357c-231.759 0-419.652 177.213-419.656 395.825 0 73.865 21.398 142.905 58.659 202.015 5.904 9.36 7.473 20.615 4.306 31.09l-98.657 162.72h455.348c231.745-.01 419.605-177.22 419.605-395.825 0-14.015-.79-27.86-2.3-41.505 28.54-8.73 55.145-21.47 79.14-37.52 4.565 25.71 7.08 52.09 7.08 79.025 0 262.33-225.425 474.99-503.525 475H154.408c-27.971 0-55.981-26.37-54.352-50.44l115.69-197.2C176.633 784.8 154.408 707.295 154.408 625c.003-262.336 225.466-475 503.577-475"/><path fill="#000" d="M1161.525 300.884c0 83.331-71.29 150.884-159.23 150.884s-159.23-67.553-159.23-150.884S914.355 150 1002.295 150s159.23 67.553 159.23 150.884"/></svg>

<svg width="1200" height="1200" viewBox="0 0 1200 1200" fill="none" xmlns="http://www.w3.org/2000/svg"><path d="M657.985 150C687.115 150.001 715.655 152.444 743.435 156.925C726.61 179.555 713.245 204.644 704.06 231.532C688.925 229.973 673.555 229.176 657.985 229.175C426.226 229.175 238.333 406.388 238.329 625C238.329 698.865 259.727 767.905 296.988 827.015C302.892 836.375 304.461 847.63 301.294 858.105L202.637 1020.825H657.985C889.73 1020.815 1077.59 843.605 1077.59 625C1077.59 610.985 1076.8 597.14 1075.29 583.495C1103.83 574.765 1130.435 562.025 1154.43 545.975C1158.995 571.685 1161.51 598.065 1161.51 625C1161.51 887.33 936.085 1099.99 657.985 1100H154.408C126.437 1100 98.427 1073.63 100.056 1049.56L215.746 852.36C176.633 784.8 154.408 707.295 154.408 625C154.411 362.664 379.874 150 657.985 150Z" fill="black"/><path d="M1161.525 300.884C1161.525 384.215 1090.235 451.768 1002.295 451.768C914.355 451.768 843.065 384.215 843.065 300.884C843.065 217.553 914.355 150 1002.295 150C1090.235 150 1161.525 217.553 1161.525 300.884Z" fill="black"/></svg>
